;FLAVOR:Marlin
;TIME:1495
;Filament used: 1.76239m
;Layer height: 0.2
;MINX:96.1
;MINY:93.6
;MINZ:0.2
;MAXX:128.9
;MAXY:126.4
;MAXZ:20
;Generated with Cura_SteamEngine 5.2.2
M82 ;absolute extrusion mode


; Pre-Processed for Cancel-Object support by preprocess_cancellation v0.2.0
; 1 known objects
EXCLUDE_OBJECT_DEFINE NAME=CalibrationCube CENTER=114.473,108.103 POLYGON=[[102.7,100.05],[102.7,119.8],[122.444,119.8],[122.444,100.05]]
START_PRINT t_bed=60 t_extruder=190.0
G92 E0
G92 E0
G1 F2400 E-6
;LAYER_COUNT:100
;LAYER:0
M107
G1 F600 Z0.275
G0 F3000 X98.033 Y95.435 Z0.275
;TYPE:SKIRT
G1 F600 Z0.2
G1 F2400 E0
G1 X98.571 Y94.964 E0.0333
G1 X99.159 Y94.556 E0.06662
G1 X99.788 Y94.216 E0.09991
G1 X100.452 Y93.949 E0.13324
G1 X101.141 Y93.757 E0.16654
G1 X101.988 Y93.62 E0.2065
G1 X102.83 Y93.6 E0.24571
G1 X121.793 Y93.6 E1.12871
G1 X122.583 Y93.611 E1.1655
G1 X123.296 Y93.661 E1.19878
G1 X124 Y93.79 E1.23211
G1 X124.684 Y93.998 E1.2654
G1 X125.341 Y94.28 E1.29869
G1 X125.963 Y94.634 E1.33202
G1 X126.541 Y95.055 E1.36531
G1 X127.069 Y95.538 E1.39863
G1 X127.539 Y96.076 E1.4319
G1 X127.947 Y96.664 E1.46522
G1 X128.286 Y97.294 E1.49854
G1 X128.553 Y97.957 E1.53182
G1 X128.744 Y98.647 E1.56516
G1 X128.88 Y99.497 E1.60524
G1 X128.9 Y100.33 E1.64404
G1 X128.9 Y119.343 E2.52936
G1 X128.891 Y120.07 E2.56322
G1 X128.842 Y120.784 E2.59654
G1 X128.714 Y121.488 E2.62986
G1 X128.508 Y122.173 E2.66317
G1 X128.227 Y122.83 E2.69644
G1 X127.874 Y123.453 E2.72979
G1 X127.454 Y124.032 E2.76309
G1 X126.972 Y124.56 E2.79638
G1 X126.435 Y125.032 E2.82967
G1 X125.847 Y125.44 E2.863
G1 X125.218 Y125.781 E2.89631
G1 X124.555 Y126.049 E2.92961
G1 X123.866 Y126.241 E2.96292
G1 X123.014 Y126.38 E3.00312
G1 X122.17 Y126.4 E3.04243
G1 X103.124 Y126.399 E3.92929
G1 X102.426 Y126.39 E3.96179
G1 X101.713 Y126.341 E3.99507
G1 X101.009 Y126.213 E4.02839
G1 X100.324 Y126.007 E4.0617
G1 X99.667 Y125.725 E4.09499
G1 X99.045 Y125.372 E4.12829
G1 X98.466 Y124.952 E4.1616
G1 X97.937 Y124.47 E4.19492
G1 X97.466 Y123.932 E4.22822
G1 X97.058 Y123.345 E4.2615
G1 X96.718 Y122.715 E4.29484
G1 X96.45 Y122.052 E4.32814
G1 X96.258 Y121.363 E4.36144
G1 X96.118 Y120.498 E4.40225
G1 X96.1 Y119.658 E4.44137
G1 X96.101 Y100.587 E5.32939
G1 X96.11 Y99.922 E5.36036
G1 X96.159 Y99.209 E5.39364
G1 X96.288 Y98.505 E5.42697
G1 X96.495 Y97.821 E5.46024
G1 X96.777 Y97.163 E5.49358
G1 X97.13 Y96.541 E5.52688
G1 X97.55 Y95.963 E5.56015
G1 X98.033 Y95.435 E5.59347
G0 F3000 X98.58 Y95.688
G1 F2400 X99.112 Y95.259 E5.62529
G1 X99.69 Y94.894 E5.65713
G1 X100.307 Y94.6 E5.68895
G1 X100.953 Y94.38 E5.72073
G1 X101.621 Y94.237 E5.75254
G1 X102.466 Y94.16 E5.79205
G1 X121.793 Y94.16 E6.69199
G1 X122.575 Y94.171 E6.72841
G1 X123.256 Y94.22 E6.7602
G1 X123.927 Y94.349 E6.79202
G1 X124.578 Y94.556 E6.82383
G1 X125.201 Y94.837 E6.85565
G1 X125.787 Y95.189 E6.88748
G1 X126.327 Y95.607 E6.91928
G1 X126.815 Y96.085 E6.95109
G1 X127.244 Y96.617 E6.98291
G1 X127.608 Y97.195 E7.01472
G1 X127.902 Y97.812 E7.04654
G1 X128.121 Y98.459 E7.07835
G1 X128.264 Y99.127 E7.11016
G1 X128.34 Y99.968 E7.14948
G1 X128.34 Y119.336 E8.05133
G1 X128.331 Y120.063 E8.08519
G1 X128.282 Y120.745 E8.11703
G1 X128.154 Y121.416 E8.14883
G1 X127.949 Y122.068 E8.18066
G1 X127.669 Y122.691 E8.21246
G1 X127.319 Y123.277 E8.24425
G1 X126.902 Y123.819 E8.27609
G1 X126.425 Y124.308 E8.3079
G1 X125.894 Y124.737 E8.33969
G1 X125.316 Y125.102 E8.37152
G1 X124.7 Y125.397 E8.40332
G1 X124.053 Y125.618 E8.43516
G1 X123.385 Y125.762 E8.46698
G1 X122.535 Y125.84 E8.50672
G1 X103.132 Y125.84 E9.41021
G1 X102.434 Y125.831 E9.44271
G1 X101.752 Y125.782 E9.47455
G1 X101.081 Y125.654 E9.50636
G1 X100.43 Y125.448 E9.53815
G1 X99.806 Y125.168 E9.57
G1 X99.22 Y124.817 E9.60181
G1 X98.679 Y124.4 E9.63361
G1 X98.19 Y123.922 E9.66545
G1 X97.761 Y123.391 E9.69724
G1 X97.396 Y122.813 E9.72907
G1 X97.102 Y122.197 E9.76086
G1 X96.881 Y121.55 E9.79269
G1 X96.737 Y120.882 E9.82451
G1 X96.66 Y120.027 E9.86448
G1 X96.661 Y100.595 E10.76932
G1 X96.67 Y99.93 E10.80029
G1 X96.719 Y99.249 E10.83208
G1 X96.847 Y98.577 E10.86393
G1 X97.053 Y97.926 E10.89573
G1 X97.334 Y97.303 E10.92755
G1 X97.685 Y96.717 E10.95936
G1 X98.103 Y96.176 E10.99119
G1 X98.58 Y95.688 E11.02297
G0 F3000 X99.126 Y95.955
G1 F2400 X99.649 Y95.571 E11.05318
G1 X100.216 Y95.253 E11.08345
G1 X100.817 Y95.007 E11.11369
G1 X101.444 Y94.837 E11.14394
G1 X102.456 Y94.72 E11.19138
G1 X121.793 Y94.72 E12.09179
G1 X122.567 Y94.731 E12.12783
G1 X123.214 Y94.78 E12.15805
G1 X123.851 Y94.908 E12.1883
G1 X124.467 Y95.114 E12.21855
G1 X125.054 Y95.394 E12.24883
G1 X125.601 Y95.743 E12.27904
G1 X126.102 Y96.157 E12.30931
G1 X126.547 Y96.63 E12.33955
G1 X126.932 Y97.154 E12.36982
G1 X127.249 Y97.721 E12.40007
G1 X127.494 Y98.322 E12.43029
G1 X127.663 Y98.949 E12.46053
G1 X127.78 Y99.957 E12.50778
G1 X127.78 Y119.329 E13.40982
G1 X127.771 Y120.056 E13.44368
G1 X127.723 Y120.704 E13.47393
G1 X127.595 Y121.341 E13.50419
G1 X127.391 Y121.958 E13.53445
G1 X127.112 Y122.545 E13.56471
G1 X126.764 Y123.093 E13.59494
G1 X126.351 Y123.594 E13.62517
G1 X125.879 Y124.041 E13.65544
G1 X125.356 Y124.426 E13.68568
G1 X124.79 Y124.744 E13.71591
G1 X124.188 Y124.991 E13.74621
G1 X123.562 Y125.161 E13.77642
G1 X122.545 Y125.28 E13.8241
G1 X103.139 Y125.28 E14.72772
G1 X102.441 Y125.271 E14.76023
G1 X101.793 Y125.222 E14.79049
G1 X101.156 Y125.095 E14.82073
G1 X100.54 Y124.89 E14.85096
G1 X99.953 Y124.611 E14.88122
G1 X99.405 Y124.262 E14.91148
G1 X98.904 Y123.849 E14.94171
G1 X98.457 Y123.377 E14.97198
G1 X98.072 Y122.854 E15.00222
G1 X97.754 Y122.287 E15.03249
G1 X97.508 Y121.686 E15.06273
G1 X97.338 Y121.059 E15.09298
G1 X97.22 Y120.039 E15.14079
G1 X97.22 Y100.603 E16.04581
G1 X97.229 Y99.938 E16.07678
G1 X97.278 Y99.29 E16.10704
G1 X97.406 Y98.653 E16.1373
G1 X97.611 Y98.036 E16.16757
G1 X97.891 Y97.45 E16.19781
G1 X98.24 Y96.902 E16.22806
G1 X98.654 Y96.401 E16.25833
G1 X99.126 Y95.955 E16.28857
G1 F2400 E10.28857
;MESH:CalibrationCube
EXCLUDE_OBJECT_START NAME=CalibrationCube
G0 F3000 X102.914 Y99.335
G0 X102.914 Y100.414
G0 X103.9 Y101.4
;TYPE:WALL-INNER
G1 F2400 E16.28857
G1 F1500 X103.9 Y118.6 E17.08947
G1 X121.1 Y118.6 E17.89037
G1 X121.1 Y110 E18.29083
G1 X121.1 Y101.4 E18.69128
G1 X103.9 Y101.4 E19.49218
G0 F3000 X103.34 Y100.84
G1 F1500 X103.34 Y119.16 E20.34524
G1 X121.66 Y119.16 E21.19829
G1 X121.66 Y110 E21.62482
G1 X121.66 Y100.84 E22.05135
G1 X103.34 Y100.84 E22.90441
G0 F3000 X102.78 Y100.28
;TYPE:WALL-OUTER
G1 F1500 X102.78 Y119.72 E23.80961
G1 X122.22 Y119.72 E24.71482
G1 X122.22 Y110 E25.16742
G1 X122.22 Y100.28 E25.62003
G1 X102.78 Y100.28 E26.52524
G0 F3000 X102.78 Y100.48
G0 X103.37 Y100.87
G0 X104.44 Y101.94
;TYPE:SKIN
G1 F1500 X104.44 Y118.06 E27.27585
G1 X120.56 Y118.06 E28.02647
G1 X120.56 Y101.94 E28.77708
G1 X104.44 Y101.94 E29.5277
G0 F3000 X120.279 Y102.856
G1 F1500 X119.643 Y102.22 E29.56958
G0 F3000 X118.851 Y102.22
G1 F1500 X120.279 Y103.648 E29.66361
G0 F3000 X120.279 Y104.44
G1 F1500 X118.059 Y102.22 E29.8098
G0 F3000 X117.267 Y102.22
G1 F1500 X120.279 Y105.232 E30.00815
G0 F3000 X120.279 Y106.024
G1 F1500 X116.475 Y102.22 E30.25865
G0 F3000 X115.683 Y102.22
G1 F1500 X120.279 Y106.816 E30.5613
G0 F3000 X120.279 Y107.608
G1 F1500 X114.891 Y102.22 E30.91611
G0 F3000 X114.099 Y102.22
G1 F1500 X120.279 Y108.4 E31.32308
G0 F3000 X120.279 Y109.192
G1 F1500 X113.307 Y102.22 E31.78219
G0 F3000 X112.515 Y102.22
G1 F1500 X120.279 Y109.984 E32.29347
G0 F3000 X120.279 Y110.776
G1 F1500 X111.723 Y102.22 E32.85689
G0 F3000 X110.931 Y102.22
G1 F1500 X120.279 Y111.568 E33.47248
G0 F3000 X120.279 Y112.359
G1 F1500 X110.139 Y102.22 E34.14018
G0 F3000 X109.347 Y102.22
G1 F1500 X120.279 Y113.151 E34.86004
G0 F3000 X120.279 Y113.943
G1 F1500 X108.555 Y102.22 E35.63205
G0 F3000 X107.763 Y102.22
G1 F1500 X120.279 Y114.735 E36.45622
G0 F3000 X120.279 Y115.527
G1 F1500 X106.971 Y102.22 E37.33254
G0 F3000 X106.179 Y102.22
G1 F1500 X120.279 Y116.319 E38.26101
G0 F3000 X120.279 Y117.111
G1 F1500 X105.387 Y102.22 E39.24165
G0 F3000 X104.718 Y102.343
G1 F1500 X120.155 Y117.779 E40.25817
G0 F3000 X119.363 Y117.779
G1 F1500 X104.718 Y103.135 E41.22253
G0 F3000 X104.718 Y103.927
G1 F1500 X118.571 Y117.779 E42.13474
G0 F3000 X117.779 Y117.779
G1 F1500 X104.718 Y104.718 E42.99483
G0 F3000 X104.718 Y105.51
G1 F1500 X116.987 Y117.779 E43.80277
G0 F3000 X116.195 Y117.779
G1 F1500 X104.718 Y106.302 E44.55855
G0 F3000 X104.718 Y107.094
G1 F1500 X115.403 Y117.779 E45.26217
G0 F3000 X114.611 Y117.779
G1 F1500 X104.718 Y107.886 E45.91364
G0 F3000 X104.718 Y108.678
G1 F1500 X113.819 Y117.779 E46.51296
G0 F3000 X113.027 Y117.779
G1 F1500 X104.718 Y109.47 E47.06012
G0 F3000 X104.719 Y110.263
G1 F1500 X112.235 Y117.779 E47.55506
G0 F3000 X111.443 Y117.779
G1 F1500 X104.719 Y111.055 E47.99785
G0 F3000 X104.719 Y111.847
G1 F1500 X110.651 Y117.779 E48.38848
G0 F3000 X109.859 Y117.779
G1 F1500 X104.719 Y112.639 E48.72696
G0 F3000 X104.719 Y113.431
G1 F1500 X109.067 Y117.779 E49.01328
G0 F3000 X108.275 Y117.779
G1 F1500 X104.719 Y114.223 E49.24745
G0 F3000 X104.719 Y115.015
G1 F1500 X107.483 Y117.779 E49.42946
G0 F3000 X106.691 Y117.779
G1 F1500 X104.719 Y115.807 E49.55932
G0 F3000 X104.719 Y116.599
G1 F1500 X105.899 Y117.779 E49.63703
G0 F3000 X105.107 Y117.779
M104 S190
G1 F1500 X104.719 Y117.391 E49.66258
;MESH:NONMESH
EXCLUDE_OBJECT_END NAME=CalibrationCube
G0 F600 X104.719 Y117.391 Z0.4
G0 F3000 X103.5 Y101
;TIME_ELAPSED:43.910635
;LAYER:1
M106 S127.5
;TYPE:WALL-INNER
;MESH:CalibrationCube
EXCLUDE_OBJECT_START NAME=CalibrationCube
G1 F2250 X103.5 Y119 E50.26126
G1 X121.5 Y119 E50.85994
G1 X121.5 Y110 E51.15929
G1 X121.5 Y101 E51.45863
G1 X103.5 Y101 E52.05731
G0 F4500 X103.1 Y100.6
G1 F2250 X103.1 Y119.4 E52.6826
G1 X121.9 Y119.4 E53.30789
G1 X121.9 Y110 E53.62054
G1 X121.9 Y100.6 E53.93318
G1 X103.1 Y100.6 E54.55847
G0 F4500 X102.7 Y100.2
;TYPE:WALL-OUTER
G1 F2250 X102.7 Y119.8 E55.21037
G1 X122.3 Y119.8 E55.86227
G1 X122.3 Y110 E56.18822
G1 X122.3 Y100.2 E56.51417
G1 X102.7 Y100.2 E57.16607
G0 F4500 X102.7 Y100.4
G0 X103.37 Y100.87
G0 X103.88 Y101.38
;TYPE:SKIN
G1 F1350 X103.88 Y118.62 E57.73947
G1 X121.12 Y118.62 E58.31288
G1 X121.12 Y110 E58.59958
G1 X121.12 Y101.38 E58.88628
G1 X103.88 Y101.38 E59.45968
G0 F4500 X104.079 Y101.829
G1 F1350 X104.329 Y101.58 E59.47142
G0 F4500 X104.895 Y101.58
G1 F1350 X104.079 Y102.395 E59.50978
G0 F4500 X104.079 Y102.961
G1 F1350 X105.46 Y101.58 E59.57474
G0 F4500 X106.026 Y101.58
G1 F1350 X104.079 Y103.526 E59.66629
G0 F4500 X104.079 Y104.092
G1 F1350 X106.592 Y101.58 E59.78447
G0 F4500 X107.157 Y101.58
G1 F1350 X104.079 Y104.658 E59.92925
G0 F4500 X104.079 Y105.223
G1 F1350 X107.723 Y101.58 E60.10063
G0 F4500 X108.289 Y101.58
G1 F1350 X104.079 Y105.789 E60.29864
G0 F4500 X104.079 Y106.355
G1 F1350 X108.854 Y101.58 E60.52324
G0 F4500 X109.42 Y101.58
G1 F1350 X104.079 Y106.92 E60.77444
G0 F4500 X104.079 Y107.486
G1 F1350 X109.986 Y101.58 E61.05226
G0 F4500 X110.551 Y101.58
G1 F1350 X104.079 Y108.052 E61.35668
G0 F4500 X104.079 Y108.617
G1 F1350 X111.117 Y101.58 E61.68771
G0 F4500 X111.683 Y101.58
G1 F1350 X104.079 Y109.183 E62.04535
G0 F4500 X104.079 Y109.749
G1 F1350 X112.248 Y101.58 E62.4296
G0 F4500 X112.814 Y101.58
G1 F1350 X104.08 Y110.314 E62.84042
G0 F4500 X104.08 Y110.88
G1 F1350 X113.38 Y101.58 E63.27786
G0 F4500 X113.946 Y101.58
G1 F1350 X104.08 Y111.445 E63.7419
G0 F4500 X104.08 Y112.011
G1 F1350 X114.511 Y101.58 E64.23255
G0 F4500 X115.077 Y101.58
G1 F1350 X104.08 Y112.577 E64.74981
G0 F4500 X104.08 Y113.142
G1 F1350 X115.643 Y101.58 E65.29368
G0 F4500 X116.208 Y101.58
G1 F1350 X104.08 Y113.708 E65.86414
G0 F4500 X104.08 Y114.274
G1 F1350 X116.774 Y101.58 E66.46123
G0 F4500 X117.34 Y101.58
G1 F1350 X104.08 Y114.839 E67.08491
G0 F4500 X104.08 Y115.405
G1 F1350 X117.905 Y101.58 E67.7352
G0 F4500 X118.471 Y101.58
G1 F1350 X104.08 Y115.971 E68.41211
G0 F4500 X104.08 Y116.536
G1 F1350 X119.037 Y101.58 E69.11561
G0 F4500 X119.602 Y101.58
G1 F1350 X104.08 Y117.102 E69.84572
G0 F4500 X104.08 Y117.668
G1 F1350 X120.168 Y101.58 E70.60245
G0 F4500 X120.734 Y101.58
G1 F1350 X104.08 Y118.233 E71.38578
G0 F4500 X104.46 Y118.419
G1 F1350 X120.918 Y101.961 E72.15992
G0 F4500 X120.918 Y102.526
G1 F1350 X105.025 Y118.419 E72.90747
G0 F4500 X105.591 Y118.419
G1 F1350 X120.918 Y103.092 E73.62841
G0 F4500 X120.918 Y103.658
G1 F1350 X106.157 Y118.419 E74.32272
G0 F4500 X106.722 Y118.419
G1 F1350 X120.918 Y104.224 E74.99043
G0 F4500 X120.918 Y104.789
G1 F1350 X107.288 Y118.419 E75.63155
G0 F4500 X107.854 Y118.419
G1 F1350 X120.918 Y105.355 E76.24604
G0 F4500 X120.918 Y105.921
G1 F1350 X108.419 Y118.419 E76.83393
G0 F4500 X108.985 Y118.419
G1 F1350 X120.918 Y106.486 E77.39522
G0 F4500 X120.918 Y107.052
G1 F1350 X109.551 Y118.419 E77.92989
G0 F4500 X110.117 Y118.419
G1 F1350 X120.918 Y107.618 E78.43794
G0 F4500 X120.918 Y108.183
G1 F1350 X110.682 Y118.419 E78.91941
G0 F4500 X111.248 Y118.419
G1 F1350 X120.918 Y108.749 E79.37425
G0 F4500 X120.918 Y109.315
G1 F1350 X111.814 Y118.419 E79.80248
G0 F4500 X112.379 Y118.419
G1 F1350 X120.918 Y109.88 E80.20413
G0 F4500 X120.918 Y110.446
G1 F1350 X112.945 Y118.419 E80.57915
G0 F4500 X113.511 Y118.419
G1 F1350 X120.918 Y111.012 E80.92755
G0 F4500 X120.918 Y111.577
G1 F1350 X114.076 Y118.419 E81.24938
G0 F4500 X114.642 Y118.419
G1 F1350 X120.918 Y112.143 E81.54458
G0 F4500 X120.918 Y112.709
G1 F1350 X115.208 Y118.419 E81.81316
G0 F4500 X115.773 Y118.419
G1 F1350 X120.918 Y113.274 E82.05517
G0 F4500 X120.918 Y113.84
G1 F1350 X116.339 Y118.419 E82.27055
G0 F4500 X116.905 Y118.419
G1 F1350 X120.918 Y114.406 E82.45931
G0 F4500 X120.918 Y114.972
G1 F1350 X117.47 Y118.419 E82.62147
G0 F4500 X118.036 Y118.419
G1 F1350 X120.918 Y115.537 E82.75703
G0 F4500 X120.918 Y116.103
G1 F1350 X118.602 Y118.419 E82.86597
G0 F4500 X119.167 Y118.419
G1 F1350 X120.918 Y116.669 E82.94831
G0 F4500 X120.918 Y117.234
G1 F1350 X119.733 Y118.419 E83.00405
G0 F4500 X120.299 Y118.419
G1 F1350 X120.918 Y117.8 E83.03316
G1 X120.988 Y117.73
;MESH:NONMESH
EXCLUDE_OBJECT_END NAME=CalibrationCube
G0 F600 X120.988 Y117.73 Z0.6
G0 F4500 X103.5 Y101
;TIME_ELAPSED:86.209149
;LAYER:2
M106 S255
;TYPE:WALL-INNER
;MESH:CalibrationCube
EXCLUDE_OBJECT_START NAME=CalibrationCube
G1 F3000 X103.5 Y119 E83.63184
G1 X121.5 Y119 E84.23053
G1 X121.5 Y110 E84.52987
G1 X121.5 Y101 E84.82921
G1 X103.5 Y101 E85.42789
G0 F6000 X103.1 Y100.6
G1 F3000 X103.1 Y119.4 E86.05318
G1 X121.9 Y119.4 E86.67847
G1 X121.9 Y110 E86.99112
G1 X121.9 Y100.6 E87.30376
G1 X103.1 Y100.6 E87.92905
G0 F6000 X102.7 Y100.2
;TYPE:WALL-OUTER
G1 F3000 X102.7 Y119.8 E88.58095
G1 X122.3 Y119.8 E89.23285
G1 X122.3 Y110 E89.5588
G1 X122.3 Y100.2 E89.88475
G1 X102.7 Y100.2 E90.53665
G0 F6000 X102.7 Y100.4
G0 X103.37 Y100.87
G0 X103.88 Y101.38
;TYPE:SKIN
G1 F1200 X103.88 Y118.62 E91.11005
G1 X121.12 Y118.62 E91.68346
G1 X121.12 Y110 E91.97016
G1 X121.12 Y101.38 E92.25686
G1 X103.88 Y101.38 E92.83027
G0 F6000 X120.919 Y101.686
G1 F1200 X120.813 Y101.58 E92.83525
G0 F6000 X120.247 Y101.58
G1 F1200 X120.919 Y102.251 E92.86684
G0 F6000 X120.919 Y102.817
G1 F1200 X119.682 Y101.58 E92.92502
G0 F6000 X119.116 Y101.58
G1 F1200 X120.919 Y103.383 E93.00983
G0 F6000 X120.919 Y103.948
G1 F1200 X118.55 Y101.58 E93.12124
G0 F6000 X117.985 Y101.58
G1 F1200 X120.919 Y104.514 E93.25924
G0 F6000 X120.919 Y105.08
G1 F1200 X117.419 Y101.58 E93.42387
G0 F6000 X116.853 Y101.58
G1 F1200 X120.919 Y105.645 E93.6151
G0 F6000 X120.919 Y106.211
G1 F1200 X116.287 Y101.58 E93.83295
G0 F6000 X115.722 Y101.58
G1 F1200 X120.919 Y106.777 E94.0774
G0 F6000 X120.919 Y107.343
G1 F1200 X115.156 Y101.58 E94.34848
G0 F6000 X114.59 Y101.58
G1 F1200 X120.919 Y107.908 E94.64615
G0 F6000 X120.919 Y108.474
G1 F1200 X114.025 Y101.58 E94.97042
G0 F6000 X113.459 Y101.58
G1 F1200 X120.919 Y109.04 E95.32132
G0 F6000 X120.919 Y109.605
G1 F1200 X112.893 Y101.58 E95.69881
G0 F6000 X112.328 Y101.58
G1 F1200 X120.919 Y110.171 E96.10291
G0 F6000 X120.919 Y110.737
G1 F1200 X111.762 Y101.58 E96.53363
G0 F6000 X111.196 Y101.58
G1 F1200 X120.919 Y111.302 E96.99094
G0 F6000 X120.919 Y111.868
